svg/fluentui-system-icons/ic_fluent_mail_unread_28_filled.svg

<svg width="28" height="28" viewBox="0 0 28 28" fill="none" xmlns="http://www.w3.org/2000/svg">
<path d="M23.9727 8.96836C25.6821 8.73759 27 7.2727 27 5.5C27 3.567 25.433 2 23.5 2C21.7368 2 20.2781 3.30385 20.0354 5C20.0349 5.00351 20.0344 5.00701 20.034 5.01052C20.0116 5.17047 20 5.33388 20 5.5C20 7.433 21.567 9 23.5 9C23.6603 9 23.8181 8.98922 23.9727 8.96836ZM18.5247 5H6.25015L6.06573 5.00514C4.35661 5.10075 3 6.51697 3 8.25V8.434L14.0002 14.1547L21.6825 10.1594C19.8197 9.43223 18.5 7.62023 18.5 5.5C18.5 5.33125 18.5084 5.16445 18.5247 5ZM14.3462 15.6654L24.4538 10.4091C24.6398 10.3732 24.8221 10.327 25.0002 10.2711V19.75C25.0002 21.483 23.6437 22.8992 21.9346 22.9949L21.7502 23H6.25015C4.51712 23 3.10091 21.6435 3.0053 19.9344L3 19.75V10.124L13.6541 15.6654C13.871 15.7782 14.1293 15.7782 14.3462 15.6654Z" fill="#212121"/>
</svg>

<svg xmlns="http://www.w3.org/2000/svg" width="28" height="28"><path d="M23.973 8.968A3.5 3.5 0 1 0 20.035 5l-.001.01a3.5 3.5 0 0 0 3.939 3.958ZM18.525 5H6.25l-.184.005A3.25 3.25 0 0 0 3 8.25v.184l11 5.72 7.683-3.995A5.002 5.002 0 0 1 18.524 5Zm-4.179 10.665 10.108-5.256c.186-.036.368-.082.546-.138v9.479a3.25 3.25 0 0 1-3.065 3.245L21.75 23H6.25a3.25 3.25 0 0 1-3.245-3.066L3 19.75v-9.626l10.654 5.541a.75.75 0 0 0 .692 0Z"/></svg>
